pix_core/e/search.svg

<!DOCTYPE svg PUBLIC "-//W3C//DTD SVG 1.1//EN" "http://www.w3.org/Graphics/SVG/1.1/DTD/svg11.dtd" [
	<!ENTITY ns_flows "http://ns.adobe.com/Flows/1.0/">
]><svg xmlns="http://www.w3.org/2000/svg" width="16" height="16" viewBox="0 0 16 16" preserveAspectRatio="xMinYMid meet" overflow="visible"><path d="M15.7 5.3c.2.2.3.5.3.8v8.8c0 .3-.1.6-.3.8s-.5.3-.8.3h-4.7c-.3 0-.6-.1-.8-.3-.3-.2-.4-.5-.4-.8v-5.9h-2v5.9c0 .3-.1.6-.3.8-.2.2-.5.3-.8.3h-4.8c-.3 0-.6-.1-.8-.3s-.3-.5-.3-.8v-8.8c0-.3.1-.6.3-.8.2-.2.5-.3.8-.3h.9v-4h4v4h4v-4h4v4h.9c.3 0 .6.1.8.3zm-14.7-4.3h6v-1h-6v1zm4.8 13.9c.1-.1.2-.3.2-.4 0-.1-.1-.3-.2-.4-.1-.1-.2-.1-.4-.1h-3.8c-.1 0-.3 0-.4.1-.1.1-.2.3-.2.4 0 .1.1.3.2.4.1.1.2.1.4.1h3.9c.1 0 .2 0 .3-.1zm3.1-7c.1-.1.1-.3.1-.4s0-.3-.1-.4c-.1-.1-.3-.1-.4-.1h-1c-.1 0-.3 0-.4.1-.1.1-.1.3-.1.4s0 .3.1.4c.1.1.3.1.4.1h1c.1 0 .3 0 .4-.1zm.1-6.9h6v-1h-6v1zm5.8 13.9c.1-.1.2-.2.2-.4 0-.1-.1-.3-.2-.4-.1-.1-.2-.1-.4-.1h-3.9c-.1 0-.3 0-.4.1-.1.1-.2.2-.2.4 0 .1.1.3.2.4.1.1.2.1.4.1h3.9c.2 0 .3 0 .4-.1z" fill="#1F4D87"/></svg>

<?xml version="1.0" encoding="utf-8"?>
<!-- Generator: Adobe Illustrator 15.1.0, SVG Export Plug-In  -->
<!DOCTYPE svg PUBLIC "-//W3C//DTD SVG 1.1//EN" "http://www.w3.org/Graphics/SVG/1.1/DTD/svg11.dtd" [
	<!ENTITY ns_flows "http://ns.adobe.com/Flows/1.0/">
]>
<svg version="1.1"
	 xmlns="http://www.w3.org/2000/svg" xmlns:xlink="http://www.w3.org/1999/xlink" xmlns:a="http://ns.adobe.com/AdobeSVGViewerExtensions/3.0/"
	 x="0px" y="0px" width="16px" height="16px" viewBox="0 0 16 16" style="overflow:visible;enable-background:new 0 0 16 16;"
	 xml:space="preserve" preserveAspectRatio="xMinYMid meet">
<defs>
</defs>
<path style="fill:#1F4D87;" d="M15.7,5.3C15.9,5.5,16,5.8,16,6.1v8.8c0,0.3-0.1,0.6-0.3,0.8S15.2,16,14.9,16h-4.7
	c-0.3,0-0.6-0.1-0.8-0.3C9.1,15.5,9,15.2,9,14.9V9H7v5.9c0,0.3-0.1,0.6-0.3,0.8C6.5,15.9,6.2,16,5.9,16H1.1c-0.3,0-0.6-0.1-0.8-0.3
	S0,15.2,0,14.9V6.1c0-0.3,0.1-0.6,0.3-0.8C0.5,5.1,0.8,5,1.1,5H2V1h4v4h4V1h4v4h0.9C15.2,5,15.5,5.1,15.7,5.3z M1,1h6V0H1V1z
	 M5.8,14.9C5.9,14.8,6,14.6,6,14.5c0-0.1-0.1-0.3-0.2-0.4C5.7,14,5.6,14,5.4,14H1.6c-0.1,0-0.3,0-0.4,0.1C1.1,14.2,1,14.4,1,14.5
	c0,0.1,0.1,0.3,0.2,0.4C1.3,15,1.4,15,1.6,15h3.9C5.6,15,5.7,15,5.8,14.9z M8.9,7.9C9,7.8,9,7.6,9,7.5s0-0.3-0.1-0.4
	C8.8,7,8.6,7,8.5,7h-1C7.4,7,7.2,7,7.1,7.1C7,7.2,7,7.4,7,7.5s0,0.3,0.1,0.4C7.2,8,7.4,8,7.5,8h1C8.6,8,8.8,8,8.9,7.9z M9,1h6V0H9V1
	z M14.8,14.9c0.1-0.1,0.2-0.2,0.2-0.4c0-0.1-0.1-0.3-0.2-0.4C14.7,14,14.6,14,14.4,14h-3.9c-0.1,0-0.3,0-0.4,0.1
	c-0.1,0.1-0.2,0.2-0.2,0.4c0,0.1,0.1,0.3,0.2,0.4c0.1,0.1,0.2,0.1,0.4,0.1h3.9C14.6,15,14.7,15,14.8,14.9z"/>
</svg>
